X:1
T:Exeter, CM
T:Exeter, CM
T:Henry Lowell Mason, 1923
T:Public Domain Courtesy of the Cyber Hymnal™
C:Henry Lowell Mason, 1923
Z:Public Domain
Z:Courtesy of the Cyber Hymnal™
%%score ( 1 2 ) ( 3 4 )
L:1/8
Q:1/4=110
M:4/4
K:F
V:1 treble 
V:2 treble 
V:3 bass 
V:4 bass 
V:1
 [FA]2 | [EG]2 F2 [CE]2 [CF]2 | [FG]2 [EG]2 [FA]2 [FA]2 | [Gc]2 [FA]2 [FA]2 =B2 | [Ec]6 [FA]2 | %5
 [EG]2 F2 [Fc]2 [Fd]2 | [Ec]2 [GB]2 [FA]2 [FA]2 | [DG]2 [DF]2 [CF]2 [CE]2 | [CF]6 |] %9
V:2
 x2 | x2 F2 x4 | x8 | x6 (GF) | x8 | x2 F2 x4 | x8 | x8 | x6 |] %9
V:3
 [F,C]2 | [B,C]2 [A,C]2 [G,B,]2 [F,A,]2 | [B,,D]2 [C,C]2 [F,C]2 [F,C]2 | %3
 [E,C]2 [F,C]2 [D,F]2 (ED) | [C,C]6 [F,C]2 | (CB,) [D,A,]2 [A,,C]2 (B,A,) | %6
 [C,G,]2 [E,C]2 [F,C]2 [A,,C]2 | [B,,B,]2 [G,,B,]2 (G,A,) [C,B,]2 | [F,,A,]6 |] %9
V:4
 x2 | x8 | x8 | x6 G,2 | x8 | C,2 x3 B,,2 x | x8 | x4 C,2 x2 | x6 |] %9

